!!!OTL: KOENIG CHRISTIAN LEBE WOHL
!!!ARE: Europa, Mitteleuropa, Deutschland
!!!SCT: F0442
!!!YEM: Copyright 1995, estate of Helmut Schaffrath.
**kern
*ICvox
*Ivox
*M4/4
*k[f#]
*G:
{4g
4b
=1
4dd
8b
8g
4cc
8a
8f#
=2
4g
4r}
{8a
8g
8f#
8e
=3
4d
4cc
4cc
4b
=4
4a
2.r}
=5
{8dd
8cc
8b
8a
8g
8a
8g
8fn
=6
4e
4g
4cc
4c}
=7
{8ee
8dd
8cc#
8b
8a
8b
8a
8g
=8
4f#
4a
4dd
4d}
=9
{4g
12g
12a
12b
4a
12a
12b
12cc
=10
8b
8a
8b
8cc
4dd
4r}
=11
{8gg
8dd
8dd
8cc
4b
4cc
=12
2b
2r}
=13
{8dd
8cc
8b
8a
8g
8a
8g
8fn
=14
4e
4g
4cc
4c}
=15
{8ee
8dd
8cc#
8b
8a
8b
8a
8g
=16
4f#
4a
4dd
4d}
=17
{4g
12g
12a
12b
4a
12a
12b
12cc
=18
8b
8a
8b
8cc
4dd
4r}
=19
{8gg
8dd
8dd
8cc
4b
4cc
=20
4b
4r}
==
!!!AGN: Vaterlands -, Heimat - Lied, nationalistisch
!!!ONB: ESAC (Essen Associative Code) Database: FINK
!!!AMT: simple quadruple
!!!AIN: vox
!!!EED: Helmut Schaffrath
!!!EEV: 1.0
*-
